lib/brands/logos/docu-sign.svg

<svg xmlns="http://www.w3.org/2000/svg" fill="none" aria-hidden="true" viewBox="0 0 217 55"><g id="DocuSign"><g id="Vector"><path fill="black" d="M5.16675 5.7161H19.985C29.4434 5.7161 35.4337 13.4111 35.4337 23.9918C35.4337 29.7631 33.542 34.8931 29.7587 38.0994C27.2364 40.3438 23.7683 41.6263 19.3544 41.6263H5.16675V5.7161ZM18.8815 35.374C25.66 35.374 28.1823 31.2059 28.1823 24.1521C28.1823 17.0983 25.1871 12.1286 19.0391 12.1286H12.2606V35.5344H18.8815V35.374ZM36.5372 28.8012C36.5372 21.1062 41.897 15.1746 49.779 15.1746C57.661 15.1746 63.0208 21.1062 63.0208 28.8012C63.0208 36.4962 57.661 42.4278 49.779 42.4278C41.897 42.4278 36.5372 36.3359 36.5372 28.8012ZM56.0846 28.8012C56.0846 23.8315 53.72 20.3046 49.6214 20.3046C45.5227 20.3046 43.1581 23.6712 43.1581 28.8012C43.1581 33.9312 45.3651 37.1375 49.6214 37.1375C53.8777 37.1375 56.0846 33.7709 56.0846 28.8012ZM64.2819 28.8012C64.2819 21.1062 69.1688 15.1746 76.8932 15.1746C83.5141 15.1746 87.4551 19.0221 88.4009 24.6331H81.78C81.3071 22.3887 79.573 20.6252 77.2084 20.6252C73.1098 20.6252 71.0605 23.8315 71.0605 28.8012C71.0605 33.6106 72.9522 36.9772 77.0508 36.9772C79.7307 36.9772 81.6224 35.5344 82.0953 32.6487H88.7162C88.2433 38.0994 84.1446 42.4278 77.3661 42.4278C69.3264 42.2675 64.2819 36.3359 64.2819 28.8012ZM106.372 41.6263V38.5803H106.214C104.48 40.985 102.589 42.2675 98.9628 42.2675C93.2878 42.2675 90.135 38.5803 90.135 32.9693V15.8158H96.7559V31.8472C96.7559 34.8931 98.017 36.4962 101.012 36.4962C104.165 36.4962 106.057 34.0915 106.057 30.725V15.8158H112.835V41.466H106.372V41.6263ZM145.467 5.87641H152.245V12.2889H145.467V5.87641ZM145.467 15.8158H152.245V41.466H145.467V15.8158ZM154.925 42.2675H161.546C162.019 43.8706 163.595 45.1532 166.591 45.1532C170.374 45.1532 172.266 43.2294 172.266 39.8628V36.9772H172.108C170.689 38.7406 168.64 40.0231 165.487 40.0231C159.812 40.0231 154.295 35.5344 154.295 27.679C154.295 19.984 158.866 15.1746 165.172 15.1746C168.325 15.1746 170.689 16.4571 172.108 18.5412H172.266V15.8158H178.729V39.5422C178.729 43.2294 177.625 45.6341 175.734 47.3975C173.684 49.4816 170.374 50.2832 166.591 50.2832C159.97 50.2832 155.713 47.3975 154.925 42.2675ZM172.739 27.5187C172.739 23.8315 170.689 20.6252 166.748 20.6252C163.28 20.6252 161.073 23.3506 161.073 27.679C161.073 32.0075 163.28 34.5725 166.748 34.5725C171.005 34.5725 172.739 31.3662 172.739 27.5187ZM188.345 19.3427C190.237 16.6174 192.601 15.1746 195.912 15.1746C201.114 15.1746 204.582 19.1824 204.582 24.7934V41.6263H197.803V25.9156C197.803 23.1902 196.227 21.2665 193.389 21.2665C190.394 21.2665 188.187 23.6712 188.187 27.1981V41.7866H181.724V16.1365H188.345V19.3427ZM130.176 19.984C124.974 18.8618 122.609 17.8999 122.609 15.0143C122.609 12.4493 125.131 10.8461 128.915 10.8461C132.383 10.8461 135.062 12.4493 135.693 15.8158H142.629C141.841 8.92236 136.797 5.07484 128.915 5.07484C121.032 5.07484 115.357 8.76205 115.357 15.8158C115.357 23.3506 121.19 24.9537 127.496 26.3965C132.856 27.679 136.166 28.3203 136.166 31.8472C136.166 35.2137 133.013 36.4962 129.387 36.4962C124.343 36.4962 121.978 34.7328 121.505 30.4043H114.569C114.885 37.9391 120.244 42.2675 129.86 42.2675C137.742 42.2675 143.575 38.2597 143.575 30.8853C143.417 23.3506 137.427 21.5871 130.176 19.984Z"/><path fill="black" d="M208.728 21.3047C207.084 21.3047 205.622 19.817 205.622 18.1433C205.622 16.4696 207.084 14.9819 208.728 14.9819C210.372 14.9819 211.833 16.4696 211.833 18.1433C211.833 19.817 210.372 21.3047 208.728 21.3047ZM208.728 15.5398C207.266 15.5398 206.17 16.6556 206.17 18.1433C206.17 19.631 207.266 20.7468 208.728 20.7468C210.189 20.7468 211.285 19.631 211.285 18.1433C211.285 16.6556 210.189 15.5398 208.728 15.5398Z"/><path fill="black" d="M207.632 16.4696H208.728C209.093 16.4696 209.458 16.4696 209.641 16.6556C209.824 16.8416 210.006 17.0275 210.006 17.3995C210.006 17.9573 209.641 18.1433 209.458 18.3293L210.189 19.631H209.458L208.91 18.5152H208.18V19.631H207.632V16.4696ZM208.18 17.0275V17.9573H208.728C208.91 17.9573 209.276 17.9573 209.276 17.3995C209.276 17.3995 209.276 17.0275 209.093 17.0275H208.18Z"/></g></g></svg>

<svg xmlns="http://www.w3.org/2000/svg" fill="none" aria-hidden="true" viewBox="0 0 217 55"><path fill="#000" d="M5.167 5.716h14.818c9.458 0 15.449 7.695 15.449 18.276 0 5.771-1.892 10.901-5.675 14.107-2.523 2.245-5.99 3.527-10.405 3.527H5.167V5.716ZM18.88 35.374c6.779 0 9.301-4.168 9.301-11.222 0-7.054-2.995-12.023-9.143-12.023H12.26v23.405h6.62v-.16Zm17.656-6.573c0-7.695 5.36-13.626 13.242-13.626 7.882 0 13.242 5.931 13.242 13.626 0 7.695-5.36 13.627-13.242 13.627-7.882 0-13.242-6.092-13.242-13.627Zm19.548 0c0-4.97-2.365-8.496-6.464-8.496-4.098 0-6.463 3.366-6.463 8.496 0 5.13 2.207 8.337 6.463 8.337 4.257 0 6.464-3.367 6.464-8.337Zm8.197 0c0-7.695 4.887-13.626 12.611-13.626 6.621 0 10.562 3.847 11.508 9.458h-6.62c-.473-2.244-2.207-4.008-4.572-4.008-4.098 0-6.147 3.206-6.147 8.176 0 4.81 1.891 8.176 5.99 8.176 2.68 0 4.571-1.443 5.044-4.328h6.621c-.473 5.45-4.571 9.779-11.35 9.779-8.04-.16-13.084-6.092-13.084-13.627Zm42.09 12.825V38.58h-.158c-1.734 2.405-3.625 3.688-7.251 3.688-5.675 0-8.828-3.688-8.828-9.299V15.816h6.62v16.031c0 3.046 1.262 4.65 4.257 4.65 3.153 0 5.045-2.405 5.045-5.772v-14.91h6.778v25.651h-6.463v.16Zm39.095-35.75h6.778v6.413h-6.778V5.876Zm0 9.94h6.778v25.65h-6.778v-25.65Zm9.458 26.451h6.621c.473 1.604 2.049 2.886 5.045 2.886 3.783 0 5.675-1.924 5.675-5.29v-2.886h-.158c-1.419 1.764-3.468 3.046-6.621 3.046-5.675 0-11.192-4.489-11.192-12.344 0-7.695 4.571-12.504 10.877-12.504 3.153 0 5.517 1.282 6.936 3.366h.158v-2.725h6.463v23.726c0 3.687-1.104 6.092-2.995 7.855-2.05 2.085-5.36 2.886-9.143 2.886-6.621 0-10.878-2.886-11.666-8.016Zm17.814-14.748c0-3.688-2.05-6.894-5.991-6.894-3.468 0-5.675 2.726-5.675 7.054 0 4.329 2.207 6.893 5.675 6.893 4.257 0 5.991-3.206 5.991-7.053Zm15.606-8.176c1.892-2.726 4.256-4.168 7.567-4.168 5.202 0 8.67 4.007 8.67 9.618v16.833h-6.779v-15.71c0-2.726-1.576-4.65-4.414-4.65-2.995 0-5.202 2.405-5.202 5.932v14.589h-6.463v-25.65h6.621v3.206Zm-58.169.641c-5.202-1.122-7.567-2.084-7.567-4.97 0-2.565 2.522-4.168 6.306-4.168 3.468 0 6.147 1.603 6.778 4.97h6.936c-.788-6.894-5.832-10.741-13.714-10.741-7.883 0-13.558 3.687-13.558 10.74 0 7.536 5.833 9.139 12.139 10.582 5.36 1.282 8.67 1.923 8.67 5.45 0 3.367-3.153 4.65-6.779 4.65-5.044 0-7.409-1.764-7.882-6.093h-6.936c.316 7.535 5.675 11.863 15.291 11.863 7.882 0 13.715-4.007 13.715-11.382-.158-7.534-6.148-9.298-13.399-10.901Zm78.553 1.321c-1.644 0-3.106-1.488-3.106-3.162 0-1.673 1.462-3.161 3.106-3.161s3.105 1.488 3.105 3.161c0 1.674-1.461 3.162-3.105 3.162Zm0-5.765c-1.462 0-2.558 1.116-2.558 2.603 0 1.488 1.096 2.604 2.558 2.604 1.461 0 2.557-1.116 2.557-2.604 0-1.487-1.096-2.603-2.557-2.603Z"/><path fill="#000" d="M207.632 16.47h1.096c.365 0 .73 0 .913.186.183.186.365.372.365.744 0 .557-.365.743-.548.93l.731 1.301h-.731l-.548-1.116h-.73v1.116h-.548V16.47Zm.548.558v.93h.548c.182 0 .548 0 .548-.558 0 0 0-.372-.183-.372h-.913Z"/></svg>
